react_webviews/src/assets/insta_redeem.svg

<svg width="32" height="33" viewBox="0 0 32 33" fill="none" xmlns="http://www.w3.org/2000/svg">
<path d="M22.174 11.0693C22.2594 9.79364 20.9794 8.64551 19.4435 8.64551C17.8649 8.64551 16.5849 9.79364 16.7129 11.1119C16.7983 12.345 17.9929 13.2805 19.4008 13.3231C20.8088 13.3231 22.0887 12.345 22.174 11.0693Z" fill="#5AAAF6"/>
<path d="M27.7643 16.6397C27.551 15.7042 26.6551 15.0238 25.6311 15.0238H25.3324L25.8444 9.75092C25.8871 9.41073 25.9298 9.07055 25.9298 8.73036C25.9724 8.39018 26.0151 8.00747 26.0151 7.66728C26.1004 6.90186 26.1431 6.26401 26.1857 5.71121C26.3137 4.39299 25.5884 3.58505 24.2232 3.54252C22.8579 3.5 21.4926 3.5 20.1273 3.5H18.6341C17.2261 3.5 15.8182 3.5 14.4102 3.54252C13.3009 3.58505 12.661 4.18037 12.5756 5.28598V5.92383C12.8743 8.85793 13.045 10.7715 13.2583 12.9402C12.4476 13.0677 11.893 13.578 11.381 14.1733C10.1864 15.6617 7.45586 15.0238 5.74926 15.0238C4.7253 15.0238 4 15.7467 4 16.7673V25.9523C4 26.8027 4.51198 27.4406 5.23728 27.6107C5.40794 27.6532 5.5786 27.6957 5.74926 27.6957C7.49852 27.6957 9.24778 27.5256 10.9544 27.8658C12.789 28.206 14.4529 29.1841 16.2875 29.3967C18.2501 29.6518 20.2553 29.3541 22.2179 29.3541C22.4312 29.3541 22.6446 29.3116 22.8152 29.2691C23.2845 29.1415 23.6259 28.8864 23.9245 28.5037C24.2658 28.0359 24.4365 27.4406 24.3085 26.8027C24.2658 26.5051 24.0952 26.2499 24.0098 25.9523C24.5218 25.9098 24.9485 25.7397 25.2898 25.4845C25.8871 25.0168 26.1857 24.2514 26.0578 23.4859C26.0151 23.1457 25.8444 22.763 25.5884 22.4229C25.9724 22.2528 26.3137 21.9976 26.5271 21.7C27.0817 20.9771 27.1244 19.914 26.4417 19.021C26.4844 19.021 26.5271 18.9785 26.5697 18.9785C27.551 18.5958 28.0203 17.6602 27.7643 16.6397ZM16.2448 7.53971C16.8848 7.07195 17.2688 6.39158 17.3968 5.49859H21.4073C21.6206 6.98691 22.5166 7.8799 24.0098 8.13504H24.0525V8.17756C23.8392 11.0691 23.7538 12.8551 23.5832 15.0663H22.9432L20.682 15.0238L17.5248 14.9813C16.9701 14.9388 16.4581 14.8537 16.0315 14.6836C15.9462 14.6411 15.8608 14.6411 15.7755 14.5986C15.7328 14.5986 15.6902 14.556 15.6475 14.5135C15.4769 14.4285 15.3062 14.3434 15.1782 14.2584C15.1782 14.0032 15.1355 13.7906 15.1355 13.5355L14.7516 8.13504C15.3489 8.04999 15.8608 7.83737 16.2448 7.53971Z" fill="#5AAAF6"/>
</svg>

<svg xmlns="http://www.w3.org/2000/svg" width="32" height="33" fill="#5aaaf6" xmlns:v="https://vecta.io/nano"><path d="M22.174 11.069c.085-1.276-1.195-2.424-2.73-2.424-1.579 0-2.859 1.148-2.731 2.466.085 1.233 1.28 2.169 2.688 2.211 1.408 0 2.688-.978 2.773-2.254zm5.59 5.571c-.213-.936-1.109-1.616-2.133-1.616h-.299l.512-5.273.085-1.021.085-1.063.171-1.956c.128-1.318-.597-2.126-1.963-2.169L20.127 3.5h-1.493l-4.224.043c-1.109.043-1.749.638-1.835 1.743v.638l.683 7.016c-.811.127-1.365.638-1.877 1.233-1.195 1.488-3.925.851-5.632.851-1.024 0-1.749.723-1.749 1.743v9.185c0 .85.512 1.488 1.237 1.658.171.042.341.085.512.085 1.749 0 3.499-.17 5.205.17 1.835.34 3.499 1.318 5.333 1.531 1.963.255 3.968-.043 5.93-.043.213 0 .427-.043.597-.085.469-.128.811-.383 1.109-.765a2.14 2.14 0 0 0 .384-1.701c-.043-.298-.213-.553-.299-.85.512-.043.939-.213 1.28-.468.597-.468.896-1.233.768-1.999-.043-.34-.213-.723-.469-1.063.384-.17.725-.425.939-.723.555-.723.597-1.786-.085-2.679.043 0 .085-.043.128-.043.981-.383 1.451-1.318 1.195-2.339zm-11.519-9.1c.64-.468 1.024-1.148 1.152-2.041h4.011c.213 1.488 1.109 2.381 2.602 2.636h.043v.043l-.469 6.889h-.64l-2.261-.043-3.157-.043c-.555-.042-1.067-.128-1.493-.298-.085-.043-.171-.043-.256-.085-.043 0-.085-.043-.128-.085l-.469-.255c0-.255-.043-.468-.043-.723l-.384-5.4c.597-.085 1.109-.298 1.493-.595z"/></svg>
